img/image/features-icon-5.svg

<svg width="40" height="40" viewBox="0 0 40 40" fill="none" xmlns="http://www.w3.org/2000/svg">
<g id="Group">
<g id="Group_2">
<path id="Vector" d="M10.3262 16.0749C12.5187 15.8774 13.012 15.7633 14.7998 17.6549C16.5917 19.5508 33.082 38.1678 33.082 38.1678C34.5619 39.8267 37.1171 39.8574 38.7362 38.1678L38.7952 38.1063C40.4143 36.421 40.389 33.7571 38.7952 32.221L17.844 13.0116C16.2375 11.4843 16.7646 7.60469 16.0436 5.41033C16.0014 5.28306 15.8665 5.22162 15.7527 5.27867L6.68323 9.81222C5.49842 10.3915 4.08592 9.86489 3.52515 8.62727L1.07122 3.33008L0.771856 3.47929C0.649581 3.54074 0.565251 3.66362 0.552602 3.80845C0.350216 6.56896 0.152044 9.64984 1.7627 12.8668C3.48299 16.3075 7.32833 16.3383 10.3304 16.0662L10.3262 16.0749ZM35.2408 36.7765C34.6294 36.1402 34.6294 35.1088 35.2408 34.4725C35.8521 33.8361 36.843 33.8361 37.4544 34.4725C38.0657 35.1088 38.0657 36.1402 37.4544 36.7765C36.843 37.4129 35.8521 37.4129 35.2408 36.7765Z" fill="#D8DADC"/>
<path id="Vector_2" d="M1.76262 12.8756C0.156183 9.65863 0.350139 6.57774 0.552525 3.81724C0.565174 3.6768 0.645287 3.54953 0.771779 3.48808L1.07114 3.33887L2.97272 9.21098L15.3478 15.6141C15.3478 15.6141 24.6913 25.458 30.5394 33.406C34.9498 39.3966 36.6363 39.6994 38.7993 38.1151L38.7403 38.1765C37.1212 39.8618 34.5619 39.8355 33.0861 38.1765C33.0861 38.1765 16.5959 19.5596 14.8039 17.6637C13.0119 15.7677 12.5186 15.8862 10.3303 16.0837C7.32825 16.3514 3.48291 16.3251 1.76262 12.8843V12.8756Z" fill="#B1B1B2"/>
<path id="Vector_3" d="M10.326 16.0749C12.5185 15.8774 13.6654 15.0787 15.4573 16.9746C17.2493 18.8706 33.7353 37.4875 33.7353 37.4875C35.2153 39.1464 37.0115 38.5979 38.1372 37.4261C39.263 36.2543 39.731 34.4417 38.1372 32.9057L17.3378 13.5383C16.5747 12.8317 16.659 9.90878 16.6042 9.40846C16.4482 7.98652 16.3976 6.49435 16.0392 5.41034C15.997 5.28745 15.8621 5.22601 15.7483 5.28307L6.67881 9.81662C5.49401 10.3959 4.08153 9.86928 3.52075 8.63166L1.06681 3.33447L0.76745 3.4793C0.640959 3.54074 0.55663 3.66802 0.548197 3.81284C0.371109 6.54702 0.653605 9.12759 2.26005 12.3445C3.98033 15.7853 7.31971 16.3383 10.3218 16.0705L10.326 16.0749ZM35.2406 36.7765C34.6292 36.1402 34.6292 35.1088 35.2406 34.4725C35.852 33.8361 36.8428 33.8361 37.4542 34.4725C38.0656 35.1088 38.0656 36.1402 37.4542 36.7765C36.8428 37.4129 35.852 37.4129 35.2406 36.7765Z" fill="#6D6D6E"/>
<path id="Vector_4" d="M34.3932 36.8026C34.3932 36.8026 17.7722 18.3217 15.9803 16.4257C15.546 15.921 15.3099 15.2408 16.208 14.5605C16.8573 14.0646 17.5867 14.6966 17.5867 14.6966L37.4838 33.5857C38.3904 34.4853 38.6096 35.5694 37.4838 36.7411C37.4796 36.7455 37.4712 36.7499 37.467 36.7587C38.0657 36.1223 38.0615 35.0998 37.4543 34.4678C36.8429 33.8314 35.8521 33.8314 35.2407 34.4678C34.6293 35.1042 34.6293 36.1355 35.2407 36.7719C35.8141 37.3687 36.7165 37.4038 37.332 36.886C36.2484 37.8778 35.0721 37.575 34.3932 36.7982V36.8026Z" fill="#9B9B9B"/>
<path id="Vector_5" d="M13.6234 5.67793C11.5237 3.51429 9.21309 1.79391 7.01636 0.183245C6.72964 -0.027414 6.36281 -0.058135 6.04658 0.099859L5.67554 0.345627L9.33115 8.60081L13.4885 6.48106C13.7879 6.33185 13.8595 5.91492 13.6234 5.67354V5.67793Z" fill="#B1B1B2"/>
<path id="Vector_6" d="M13.6232 5.67793C11.5235 3.51429 9.2129 1.79391 7.01616 0.183245C6.72945 -0.027414 6.36262 -0.058135 6.04639 0.099859L9.73994 7.83718C9.82427 8.01273 10.0309 8.08733 10.1995 7.99956L13.4293 6.35379C13.7286 6.20457 13.8593 5.91931 13.6232 5.67793Z" fill="#6D6D6E"/>
<path id="Vector_7" d="M12.4209 7.44955L8.64124 9.33447L10.8785 14.1948L14.6581 12.3098L12.4209 7.44955Z" fill="#98989C"/>
<path id="Vector_8" d="M14.3949 12.4363L14.6563 12.309L12.4216 7.45068L12.4259 8.15288L14.3949 12.4363Z" fill="#68676C"/>
<path id="Vector_9" d="M10.8784 14.1921L14.6563 12.3093L14.0913 11.7476L10.9037 13.3363L10.8784 14.1921Z" fill="#EDEEEF"/>
<g id="Group_3">
<path id="Vector_10" d="M11.8526 8.00378C12.0213 7.92039 12.6116 8.84202 13.1723 10.0621C13.7331 11.2822 14.0536 12.3398 13.8849 12.4232C13.7162 12.5066 13.126 11.585 12.5652 10.3649C12.0044 9.14484 11.6839 8.08716 11.8526 8.00378Z" fill="#504F53"/>
<path id="Vector_11" d="M11.2454 8.30651C11.4141 8.22312 12.0044 9.14476 12.5651 10.3648C13.1259 11.5849 13.4464 12.6426 13.2777 12.726C13.1091 12.8093 12.5188 11.8877 11.958 10.6676C11.3972 9.44758 11.0768 8.3899 11.2454 8.30651Z" fill="#504F53"/>
<path id="Vector_12" d="M10.634 8.61413C10.8026 8.53074 11.3929 9.45237 11.9537 10.6724C12.5145 11.8925 12.8349 12.9502 12.6663 13.0336C12.4976 13.117 11.9073 12.1953 11.3465 10.9753C10.7858 9.7552 10.4653 8.69751 10.634 8.61413Z" fill="#504F53"/>
<path id="Vector_13" d="M10.0225 8.91686C10.1912 8.83348 10.7815 9.75511 11.3423 10.9752C11.903 12.1952 12.2235 13.2529 12.0548 13.3363C11.8862 13.4197 11.2959 12.4981 10.7351 11.278C10.1743 10.0579 9.85387 9.00025 10.0225 8.91686Z" fill="#504F53"/>
<path id="Vector_14" d="M9.41535 9.2196C9.584 9.13621 10.1743 10.0578 10.7351 11.2779C11.2959 12.498 11.6163 13.5557 11.4476 13.639C11.279 13.7224 10.6887 12.8008 10.1279 11.5807C9.56714 10.3607 9.24669 9.30298 9.41535 9.2196Z" fill="#504F53"/>
</g>
</g>
<g id="Group_4">
<path id="Vector_15" d="M34.3427 2.21533L32.42 4.21659C32.3568 4.28242 32.3062 4.36142 32.2767 4.44919L31.9393 5.40154C31.8635 5.6122 31.7454 5.80092 31.5936 5.95891L16.0352 22.1533L17.0429 23.2022L32.576 7.03415C32.7447 6.8586 32.9471 6.73133 33.1705 6.65672L34.0813 6.34951C34.174 6.31879 34.2584 6.26173 34.33 6.19151L36.2401 4.20342L34.3385 2.22411L34.3427 2.21533Z" fill="#D8DADC"/>
<path id="Vector_16" d="M35.2954 3.20264L16.5663 22.6973L17.0469 23.1977L32.5801 7.0296C32.7487 6.85405 32.9511 6.72678 33.1746 6.65217L34.0853 6.34496C34.1781 6.31424 34.2624 6.25719 34.3341 6.18697L36.2441 4.19888L35.2954 3.21141V3.20264Z" fill="#98989C"/>
<path id="Vector_17" d="M34.3425 2.21533L32.4072 4.22976C32.3524 4.28681 32.3186 4.35703 32.3018 4.43164L32.0783 5.62098C32.0404 5.81847 31.9476 5.99841 31.8127 6.13885L16.2332 22.3552L16.8487 22.9959L32.4156 6.79277C32.559 6.64355 32.7445 6.54261 32.9427 6.51189L34.1022 6.3144C34.1823 6.30123 34.254 6.26173 34.3088 6.20468L36.2399 4.19465L34.3383 2.21533H34.3425Z" fill="#6D6D6E"/>
<path id="Vector_18" d="M35.8985 4.55013C35.8985 4.55013 34.76 5.41909 33.9378 4.56329C33.1199 3.71188 33.9969 2.57081 33.9969 2.57081L34.3426 2.21094L36.2442 4.19025L35.8985 4.55013Z" fill="#98989C"/>
<path id="Vector_19" d="M13.6276 21.938C11.7597 23.316 9.5461 25.6245 7.09217 28.1744C1.23421 34.2718 -0.994851 38.0534 0.404988 39.5192C1.80483 40.985 5.43794 38.6649 11.3043 32.5587C13.7583 30.0045 15.9719 27.7004 17.2958 25.7562L13.6276 21.938Z" fill="#739CED"/>
<path id="Vector_20" d="M14.0872 22.4121C12.3163 23.8867 10.0985 26.1952 7.6446 28.745C1.78664 34.8424 -0.684162 38.3724 0.232198 39.335C1.14856 40.2976 4.53993 37.7258 10.4063 31.6196C12.8603 29.0654 15.0739 26.7613 16.4906 24.9137L14.083 22.4077L14.0872 22.4121Z" fill="url(#paint0_linear_226_1936)"/>
<path id="Vector_21" d="M16.8741 25.3129C15.4405 27.143 13.2269 29.4514 10.773 32.0013C4.91505 38.0987 1.56162 40.71 0.712725 39.8352C-0.136173 38.9603 2.37258 35.4698 8.23897 29.3637C10.6929 26.8094 12.9065 24.5053 14.6647 23.0132L16.8741 25.3129Z" fill="url(#paint1_linear_226_1936)"/>
<path id="Vector_22" d="M14.6269 22.9785C12.9066 24.5058 10.6888 26.8143 8.23486 29.3641C2.3769 35.4615 -0.22602 38.854 0.426114 39.5416C1.07825 40.2291 4.33752 37.5198 10.2039 31.4136C12.6578 28.8594 14.8714 26.5553 16.3387 24.7603L14.6227 22.9741L14.6269 22.9785Z" fill="#739CED"/>
<path id="Vector_23" d="M14.0566 19.9746L13.5408 20.5115C13.1868 20.88 13.1868 21.4774 13.5408 21.8459L17.3839 25.8461C17.7379 26.2146 18.3118 26.2146 18.6659 25.8461L19.1817 25.3092C19.5357 24.9407 19.5357 24.3433 19.1817 23.9748L15.3386 19.9746C14.9846 19.6061 14.4106 19.6061 14.0566 19.9746Z" fill="url(#paint2_linear_226_1936)"/>
<path id="Vector_24" d="M16.9247 25.3701L13.9986 22.3244C13.7287 22.0435 13.7962 21.5168 14.1503 21.1482L14.669 20.6084C15.0231 20.2397 15.5291 20.1695 15.7989 20.4504L18.7251 23.4962C18.995 23.777 18.9275 24.3037 18.5733 24.6723L18.0547 25.2121C17.7005 25.5808 17.1946 25.651 16.9247 25.3701Z" fill="#739CED"/>
<path id="Vector_25" d="M15.9888 24.3958L14.9768 23.3425C14.8841 23.246 15.0949 22.8686 15.4491 22.4999L15.9677 21.9601C16.3219 21.5914 16.6845 21.372 16.7772 21.4686L17.7892 22.5219C17.8819 22.6184 17.6711 22.9958 17.3169 23.3645L16.7983 23.9043C16.4441 24.273 16.0815 24.4924 15.9888 24.3958Z" fill="url(#paint3_linear_226_1936)"/>
</g>
</g>
<defs>
<linearGradient id="paint0_linear_226_1936" x1="-11.5675" y1="11.2154" x2="19.409" y2="12.5468" gradientUnits="userSpaceOnUse">
<stop stop-color="#040E1D"/>
<stop offset="0.203125" stop-color="#0E305F"/>
<stop offset="0.395833" stop-color="#133F7B"/>
<stop offset="0.578125" stop-color="#19519D"/>
<stop offset="0.786458" stop-color="#1161CD"/>
<stop offset="1" stop-color="#1161CD"/>
</linearGradient>
<linearGradient id="paint1_linear_226_1936" x1="-10.9759" y1="11.9106" x2="19.7708" y2="13.2329" gradientUnits="userSpaceOnUse">
<stop stop-color="#040E1D"/>
<stop offset="0.203125" stop-color="#0E305F"/>
<stop offset="0.395833" stop-color="#133F7B"/>
<stop offset="0.578125" stop-color="#19519D"/>
<stop offset="0.786458" stop-color="#1161CD"/>
<stop offset="1" stop-color="#1161CD"/>
</linearGradient>
<linearGradient id="paint2_linear_226_1936" x1="8.2803" y1="19.0136" x2="11.859" y2="15.6817" gradientUnits="userSpaceOnUse">
<stop stop-color="#040E1D"/>
<stop offset="0.203125" stop-color="#0E305F"/>
<stop offset="0.395833" stop-color="#133F7B"/>
<stop offset="0.578125" stop-color="#19519D"/>
<stop offset="0.786458" stop-color="#1161CD"/>
<stop offset="1" stop-color="#1161CD"/>
</linearGradient>
<linearGradient id="paint3_linear_226_1936" x1="12.9379" y1="19.5028" x2="18.3179" y2="19.7341" gradientUnits="userSpaceOnUse">
<stop stop-color="#040E1D"/>
<stop offset="0.203125" stop-color="#0E305F"/>
<stop offset="0.395833" stop-color="#133F7B"/>
<stop offset="0.578125" stop-color="#19519D"/>
<stop offset="0.786458" stop-color="#1161CD"/>
<stop offset="1" stop-color="#1161CD"/>
</linearGradient>
</defs>
</svg>

<svg width="40" height="40" fill="none" xmlns="http://www.w3.org/2000/svg"><path d="M10.326 16.075c2.193-.198 2.686-.312 4.474 1.58 1.792 1.896 18.282 20.513 18.282 20.513 1.48 1.659 4.035 1.69 5.654 0l.06-.062c1.618-1.685 1.593-4.349 0-5.885l-20.952-19.21c-1.607-1.527-1.08-5.406-1.8-7.6-.043-.128-.178-.19-.291-.132l-9.07 4.533c-1.185.58-2.597.053-3.158-1.185L1.071 3.33l-.3.15a.405.405 0 0 0-.218.328C.35 6.57.152 9.65 1.763 12.867c1.72 3.44 5.565 3.471 8.567 3.2l-.004.008Zm24.915 20.701a1.676 1.676 0 0 1 0-2.304 1.522 1.522 0 0 1 2.213 0 1.677 1.677 0 0 1 0 2.304 1.522 1.522 0 0 1-2.213 0Z" fill="#D8DADC"/><path d="M1.763 12.876C.156 9.659.35 6.578.553 3.817a.402.402 0 0 1 .219-.329l.3-.15 1.9 5.873 12.376 6.403s9.343 9.844 15.191 17.792c4.41 5.99 6.097 6.293 8.26 4.71l-.059.06c-1.619 1.686-4.178 1.66-5.654 0 0 0-16.49-18.616-18.282-20.512-1.792-1.896-2.285-1.778-4.474-1.58-3.002.267-6.847.241-8.567-3.2v-.008Z" fill="#B1B1B2"/><path d="M10.326 16.075c2.192-.198 3.34-.996 5.131.9 1.792 1.896 18.278 20.512 18.278 20.512 1.48 1.66 3.276 1.11 4.402-.06 1.126-1.173 1.594-2.985 0-4.521l-20.8-19.368c-.762-.706-.678-3.63-.733-4.13-.156-1.421-.206-2.914-.565-3.998-.042-.123-.177-.184-.29-.127l-9.07 4.534c-1.185.579-2.597.052-3.158-1.185L1.067 3.334l-.3.145a.395.395 0 0 0-.219.334C.371 6.547.654 9.128 2.26 12.345c1.72 3.44 5.06 3.993 8.062 3.725l.004.005Zm24.915 20.701a1.676 1.676 0 0 1 0-2.304 1.522 1.522 0 0 1 2.213 0 1.676 1.676 0 0 1 0 2.304 1.522 1.522 0 0 1-2.213 0Z" fill="#6D6D6E"/><path d="M34.393 36.803S17.773 18.322 15.98 16.426c-.434-.505-.67-1.185.228-1.865.65-.496 1.379.136 1.379.136l19.897 18.889c.906.9 1.126 1.983 0 3.155-.004.005-.013.009-.017.018a1.677 1.677 0 0 0-.013-2.291 1.522 1.522 0 0 0-2.213 0 1.676 1.676 0 0 0 0 2.304 1.52 1.52 0 0 0 2.091.114c-1.084.992-2.26.689-2.939-.088v.005Z" fill="#9B9B9B"/><path d="M13.623 5.678c-2.1-2.164-4.41-3.884-6.607-5.495A.923.923 0 0 0 6.046.1l-.37.246L9.33 8.6l4.158-2.12c.299-.15.37-.566.134-.807v.004Z" fill="#B1B1B2"/><path d="M13.623 5.678c-2.1-2.164-4.41-3.884-6.607-5.495A.923.923 0 0 0 6.046.1L9.74 7.837c.084.176.29.25.46.163l3.23-1.646c.299-.15.43-.435.193-.676Z" fill="#6D6D6E"/><path d="M12.42 7.45 8.642 9.334l2.238 4.86 3.78-1.884-2.238-4.86Z" fill="#98989C"/><path d="m14.395 12.436.261-.127-2.234-4.858.004.702 1.969 4.283Z" fill="#68676C"/><path d="m10.878 14.192 3.778-1.883-.565-.561-3.187 1.588-.026.856Z" fill="#EDEEEF"/><g fill="#504F53"><path d="M11.853 8.004c.168-.084.759.838 1.32 2.058.56 1.22.88 2.278.712 2.361-.169.084-.759-.838-1.32-2.058-.56-1.22-.881-2.278-.712-2.361Z"/><path d="M11.245 8.307c.17-.084.76.838 1.32 2.058.56 1.22.881 2.278.713 2.361-.169.083-.76-.838-1.32-2.058-.56-1.22-.881-2.278-.713-2.361ZM10.634 8.614c.169-.083.759.838 1.32 2.058.56 1.22.88 2.278.712 2.362-.168.083-.759-.839-1.32-2.059-.56-1.22-.88-2.277-.712-2.36ZM10.023 8.917c.168-.084.758.838 1.32 2.058.56 1.22.88 2.278.712 2.361-.169.084-.76-.838-1.32-2.058-.56-1.22-.881-2.278-.712-2.361Z"/><path d="M9.415 9.22c.169-.084.76.838 1.32 2.058.56 1.22.881 2.278.713 2.361-.169.083-.76-.838-1.32-2.058-.56-1.22-.881-2.278-.713-2.361Z"/></g><path d="M34.343 2.215 32.42 4.217a.626.626 0 0 0-.143.232l-.338.953c-.076.21-.194.399-.345.557L16.035 22.153l1.008 1.05L32.576 7.033c.169-.175.371-.303.594-.377l.911-.307a.656.656 0 0 0 .249-.158l1.91-1.989-1.901-1.979.004-.009Z" fill="#D8DADC"/><path d="M35.295 3.203 16.566 22.697l.48.5L32.58 7.03c.169-.176.371-.303.595-.378l.91-.307a.657.657 0 0 0 .25-.158l1.91-1.988-.95-.988v-.008Z" fill="#98989C"/><path d="M34.343 2.215 32.407 4.23a.421.421 0 0 0-.105.202l-.224 1.189c-.038.197-.13.377-.265.518l-15.58 16.216.616.64L32.416 6.794a.937.937 0 0 1 .527-.281l1.16-.198a.37.37 0 0 0 .206-.11l1.93-2.01-1.9-1.979h.004Z" fill="#6D6D6E"/><path d="M35.898 4.55s-1.138.87-1.96.013c-.818-.851.059-1.992.059-1.992l.346-.36 1.901 1.98-.346.36Z" fill="#98989C"/><path d="M13.628 21.938c-1.868 1.378-4.082 3.687-6.536 6.236C1.234 34.272-.995 38.054.405 39.52c1.4 1.466 5.033-.854 10.9-6.96 2.453-2.554 4.667-4.859 5.99-6.803l-3.667-3.818Z" fill="#739CED"/><path d="M14.087 22.412c-1.77 1.475-3.989 3.783-6.442 6.333-5.858 6.097-8.33 9.627-7.413 10.59.917.963 4.308-1.61 10.174-7.715 2.454-2.555 4.668-4.859 6.085-6.706l-2.408-2.506.004.004Z" fill="url(#a)"/><path d="M16.874 25.313c-1.433 1.83-3.647 4.138-6.101 6.688C4.915 38.1 1.562 40.71.713 39.835c-.85-.875 1.66-4.365 7.526-10.471 2.454-2.555 4.667-4.859 6.426-6.35l2.21 2.299Z" fill="url(#b)"/><path d="M14.627 22.979c-1.72 1.527-3.938 3.835-6.392 6.385-5.858 6.098-8.461 9.49-7.809 10.178.652.687 3.912-2.022 9.778-8.128 2.454-2.555 4.667-4.859 6.135-6.654l-1.716-1.786.004.005Z" fill="#739CED"/><path d="m14.057 19.975-.516.537a.971.971 0 0 0 0 1.334l3.843 4a.882.882 0 0 0 1.282 0l.516-.537a.971.971 0 0 0 0-1.334l-3.843-4a.882.882 0 0 0-1.282 0Z" fill="url(#c)"/><path d="m16.925 25.37-2.926-3.046c-.27-.28-.203-.807.151-1.176l.519-.54c.354-.368.86-.439 1.13-.158l2.926 3.046c.27.281.202.808-.152 1.176l-.518.54c-.354.369-.86.439-1.13.158Z" fill="#739CED"/><path d="m15.989 24.396-1.012-1.053c-.093-.097.118-.474.472-.843l.519-.54c.354-.369.716-.588.81-.491l1.011 1.053c.093.096-.118.474-.472.843l-.519.54c-.354.368-.716.587-.81.49Z" fill="url(#d)"/><defs><linearGradient id="a" x1="-11.568" y1="11.215" x2="19.409" y2="12.547" gradientUnits="userSpaceOnUse"><stop stop-color="#040E1D"/><stop offset=".203" stop-color="#0E305F"/><stop offset=".396" stop-color="#133F7B"/><stop offset=".578" stop-color="#19519D"/><stop offset=".786" stop-color="#1161CD"/><stop offset="1" stop-color="#1161CD"/></linearGradient><linearGradient id="b" x1="-10.976" y1="11.911" x2="19.771" y2="13.233" gradientUnits="userSpaceOnUse"><stop stop-color="#040E1D"/><stop offset=".203" stop-color="#0E305F"/><stop offset=".396" stop-color="#133F7B"/><stop offset=".578" stop-color="#19519D"/><stop offset=".786" stop-color="#1161CD"/><stop offset="1" stop-color="#1161CD"/></linearGradient><linearGradient id="c" x1="8.28" y1="19.014" x2="11.859" y2="15.682" gradientUnits="userSpaceOnUse"><stop stop-color="#040E1D"/><stop offset=".203" stop-color="#0E305F"/><stop offset=".396" stop-color="#133F7B"/><stop offset=".578" stop-color="#19519D"/><stop offset=".786" stop-color="#1161CD"/><stop offset="1" stop-color="#1161CD"/></linearGradient><linearGradient id="d" x1="12.938" y1="19.503" x2="18.318" y2="19.734" gradientUnits="userSpaceOnUse"><stop stop-color="#040E1D"/><stop offset=".203" stop-color="#0E305F"/><stop offset=".396" stop-color="#133F7B"/><stop offset=".578" stop-color="#19519D"/><stop offset=".786" stop-color="#1161CD"/><stop offset="1" stop-color="#1161CD"/></linearGradient></defs></svg>
